Dominus_Dark_Funeral/22/apps/preferences-desktop-display.svg

<svg xmlns="http://www.w3.org/2000/svg" width="24" height="24" viewBox="0 0 6.35 6.35"><defs><linearGradient id="a"><stop offset="0"/><stop offset="1" stop-opacity="0"/></linearGradient><linearGradient id="b"><stop offset="0" stop-color="#515151"/><stop offset=".2" stop-color="#2b2b2b"/><stop offset=".53" stop-color="#1b1b1b"/><stop offset="1"/></linearGradient></defs><path d="M.37.1a.2.2 0 0 0-.2.2v4.5c0 .11.09.2.2.2h1.2v.84h3.36v-.83h1.05a.2.2 0 0 0 .2-.2V.3a.2.2 0 0 0-.2-.2zm.41.44H5.6c.11 0 .2.08.2.2v3.5a.2.2 0 0 1-.2.2H.78a.2.2 0 0 1-.2-.2V.74c0-.12.09-.2.2-.2zM2.53.8l-.56.85h.43v.86h-.57v-.43l-.86.57.86.57v-.43h.57v.57h-.43l.57.85.57-.85h-.43v-.57h1.43v.43l.85-.57-.85-.57v.43H2.68v-.86h.43zM.57 5.86v.4H5.8v-.4z" fill="#e6e6e6"/></svg>

<?xml version="1.0" encoding="UTF-8" standalone="no"?>
<svg
   xmlns:dc="http://purl.org/dc/elements/1.1/"
   xmlns:cc="http://creativecommons.org/ns#"
   xmlns:rdf="http://www.w3.org/1999/02/22-rdf-syntax-ns#"
   xmlns:svg="http://www.w3.org/2000/svg"
   xmlns="http://www.w3.org/2000/svg"
   xmlns:sodipodi="http://sodipodi.sourceforge.net/DTD/sodipodi-0.dtd"
   xmlns:inkscape="http://www.inkscape.org/namespaces/inkscape"
   width="24"
   height="24"
   viewBox="0 0 6.35 6.35"
   version="1.1"
   id="svg20"
   sodipodi:docname="preferences-desktop-display.svg"
   inkscape:version="0.92.4 (5da689c313, 2019-01-14)">
  <metadata
     id="metadata24">
    <rdf:RDF>
      <cc:Work
         rdf:about="">
        <dc:format>image/svg+xml</dc:format>
        <dc:type
           rdf:resource="http://purl.org/dc/dcmitype/StillImage" />
        <dc:title></dc:title>
      </cc:Work>
    </rdf:RDF>
  </metadata>
  <sodipodi:namedview
     pagecolor="#ffffff"
     bordercolor="#666666"
     borderopacity="1"
     objecttolerance="10"
     gridtolerance="10"
     guidetolerance="10"
     inkscape:pageopacity="0"
     inkscape:pageshadow="2"
     inkscape:window-width="1138"
     inkscape:window-height="480"
     id="namedview22"
     showgrid="false"
     inkscape:zoom="9.8333333"
     inkscape:cx="1.0677966"
     inkscape:cy="12"
     inkscape:window-x="0"
     inkscape:window-y="25"
     inkscape:window-maximized="0"
     inkscape:current-layer="svg20" />
  <defs
     id="defs16">
    <linearGradient
       id="a">
      <stop
         offset="0"
         id="stop2" />
      <stop
         offset="1"
         stop-opacity="0"
         id="stop4" />
    </linearGradient>
    <linearGradient
       id="b">
      <stop
         offset="0"
         stop-color="#515151"
         id="stop7" />
      <stop
         offset=".2"
         stop-color="#2b2b2b"
         id="stop9" />
      <stop
         offset=".53"
         stop-color="#1b1b1b"
         id="stop11" />
      <stop
         offset="1"
         id="stop13" />
    </linearGradient>
  </defs>
  <path
     d="m 0.37,0.1 a 0.2,0.2 0 0 0 -0.2,0.2 v 4.5 c 0,0.11 0.09,0.2 0.2,0.2 h 1.2 V 5.84 H 4.93 V 5.01 h 1.05 a 0.2,0.2 0 0 0 0.2,-0.2 V 0.3 A 0.2,0.2 0 0 0 5.98,0.1 Z M 0.78,0.54 H 5.6 c 0.11,0 0.2,0.08 0.2,0.2 v 3.5 A 0.2,0.2 0 0 1 5.6,4.44 H 0.78 a 0.2,0.2 0 0 1 -0.2,-0.2 v -3.5 c 0,-0.12 0.09,-0.2 0.2,-0.2 z M 2.53,0.8 1.97,1.65 H 2.4 V 2.51 H 1.83 V 2.08 L 0.97,2.65 1.83,3.22 V 2.79 H 2.4 V 3.36 H 1.97 L 2.54,4.21 3.11,3.36 H 2.68 V 2.79 H 4.11 V 3.22 L 4.96,2.65 4.11,2.08 V 2.51 H 2.68 V 1.65 H 3.11 Z M 0.57,5.86 v 0.4 H 5.8 v -0.4 z"
     id="path18"
     inkscape:connector-curvature="0"
     style="fill:#e6e6e6" />
</svg>
